X:773
T:Up Jumped The Devil
M:4/4
L:1/4
S:Colin Hume's website,  colinhume.com  - chords can also be printed below the stave.
Q:1/2=120
K:A
P:A
[| e | "A"ee/e/ff | "A"aafe | "A"eafe | "E7"g3e |\
"E7"e/g/b/e/ g/b/e/g/ | "E7"b/e/g/b/ge | "E7"g/f/e/g/ f/e/f/c/ | "A"e3e |
P:B
"A"e/c/e/c/ f/c/f/c/ | "A"a/c/a/c/fe | "A"eaea | "D7"f3a |\
"D7"a3/b/af | "A"e3/f/ee/f/ | "E7"g/f/e/d/ c/A/B | "A"A2-A2 |
P:C
"A"EA/A/EA/A/ | "D"FA/A/ "A"EE | "A"EA/A/EA | "E7"Be2e |\
"E7"B/B/e/e/ B/e/B/B/ | "E7"e/B/B/e/ef | "E7"g/f/e/g/ f/e/d/B/ | "A"A/B/A/F/ "E7"EE |
P:D
"A"EA/A/EA/A/ | "D"FA/A/ "A"EE | "A"EA/A/EA/A/ | "D7"F3a |\
"D7"a3/b/af | "A"e3/f/ee/f/ | "E7"g/f/e/d/ c/A/B | "A"A2-A2 |]

